images/3233969.svg

<?xml version="1.0" encoding="UTF-8"?>
<svg xmlns="http://www.w3.org/2000/svg" xmlns:xlink="http://www.w3.org/1999/xlink" width="300pt" height="300pt" viewBox="0 0 300 300" version="1.1">
<defs>
<g>
<symbol overflow="visible" id="glyph0-0">
<path style="stroke:none;" d="M 0.453125 1.59375 L 0.453125 -6.34375 L 4.953125 -6.34375 L 4.953125 1.59375 Z M 0.953125 1.09375 L 4.453125 1.09375 L 4.453125 -5.84375 L 0.953125 -5.84375 Z M 0.953125 1.09375 "/>
</symbol>
<symbol overflow="visible" id="glyph0-1">
<path style="stroke:none;" d="M 0.890625 -6.5625 L 2.078125 -6.5625 L 4.984375 -1.078125 L 4.984375 -6.5625 L 5.84375 -6.5625 L 5.84375 0 L 4.65625 0 L 1.75 -5.484375 L 1.75 0 L 0.890625 0 Z M 0.890625 -6.5625 "/>
</symbol>
<symbol overflow="visible" id="glyph0-2">
<path style="stroke:none;" d="M 3.546875 -5.953125 C 2.898438 -5.953125 2.382812 -5.710938 2 -5.234375 C 1.625 -4.753906 1.4375 -4.101562 1.4375 -3.28125 C 1.4375 -2.445312 1.625 -1.789062 2 -1.3125 C 2.382812 -0.832031 2.898438 -0.59375 3.546875 -0.59375 C 4.191406 -0.59375 4.703125 -0.832031 5.078125 -1.3125 C 5.453125 -1.789062 5.640625 -2.445312 5.640625 -3.28125 C 5.640625 -4.101562 5.453125 -4.753906 5.078125 -5.234375 C 4.703125 -5.710938 4.191406 -5.953125 3.546875 -5.953125 Z M 3.546875 -6.6875 C 4.460938 -6.6875 5.195312 -6.375 5.75 -5.75 C 6.300781 -5.132812 6.578125 -4.3125 6.578125 -3.28125 C 6.578125 -2.238281 6.300781 -1.410156 5.75 -0.796875 C 5.195312 -0.179688 4.460938 0.125 3.546875 0.125 C 2.617188 0.125 1.878906 -0.179688 1.328125 -0.796875 C 0.773438 -1.410156 0.5 -2.238281 0.5 -3.28125 C 0.5 -4.3125 0.773438 -5.132812 1.328125 -5.75 C 1.878906 -6.375 2.617188 -6.6875 3.546875 -6.6875 Z M 3.546875 -6.6875 "/>
</symbol>
<symbol overflow="visible" id="glyph0-3">
<path style="stroke:none;" d="M 0.890625 -6.5625 L 1.765625 -6.5625 L 1.765625 -3.875 L 5 -3.875 L 5 -6.5625 L 5.890625 -6.5625 L 5.890625 0 L 5 0 L 5 -3.125 L 1.765625 -3.125 L 1.765625 0 L 0.890625 0 Z M 0.890625 -6.5625 "/>
</symbol>
</g>
</defs>
<g id="surface38409">
<rect x="0" y="0" width="300" height="300" style="fill:rgb(100%,100%,100%);fill-opacity:1;stroke:none;"/>
<path style="fill:none;stroke-width:1.2;stroke-linecap:butt;stroke-linejoin:miter;stroke:rgb(0%,0%,0%);stroke-opacity:1;stroke-miterlimit:10;" d="M 94.113281 127.027344 L 82.796875 125.640625 "/>
<path style="fill:none;stroke-width:1.2;stroke-linecap:butt;stroke-linejoin:miter;stroke:rgb(0%,0%,100%);stroke-opacity:1;stroke-miterlimit:10;" d="M 82.796875 125.640625 L 71.476562 124.257812 "/>
<path style="fill:none;stroke-width:1.2;stroke-linecap:butt;stroke-linejoin:miter;stroke:rgb(0%,0%,100%);stroke-opacity:1;stroke-miterlimit:10;" d="M 71.476562 124.257812 L 65.945312 114.28125 "/>
<path style="fill:none;stroke-width:1.2;stroke-linecap:butt;stroke-linejoin:miter;stroke:rgb(0%,0%,0%);stroke-opacity:1;stroke-miterlimit:10;" d="M 65.945312 114.28125 L 60.410156 104.308594 "/>
<path style="fill:none;stroke-width:1.2;stroke-linecap:butt;stroke-linejoin:miter;stroke:rgb(0%,0%,0%);stroke-opacity:1;stroke-miterlimit:10;" d="M 55.925781 140.941406 L 63.699219 132.597656 "/>
<path style="fill:none;stroke-width:1.2;stroke-linecap:butt;stroke-linejoin:miter;stroke:rgb(0%,0%,100%);stroke-opacity:1;stroke-miterlimit:10;" d="M 63.699219 132.597656 L 71.476562 124.257812 "/>
<path style=" stroke:none;fill-rule:nonzero;fill:rgb(100%,100%,100%);fill-opacity:1;" d="M 68.476562 118.757812 L 75.476562 118.757812 L 75.476562 129.757812 L 68.476562 129.757812 Z M 68.476562 118.757812 "/>
<g style="fill:rgb(0%,0%,100%);fill-opacity:1;">
  <use xlink:href="#glyph0-1" x="68.476562" y="127.420898"/>
</g>
<path style="fill:none;stroke-width:1.2;stroke-linecap:butt;stroke-linejoin:miter;stroke:rgb(0%,0%,0%);stroke-opacity:1;stroke-miterlimit:10;" d="M 60.410156 104.308594 L 38.023438 108.667969 "/>
<path style="fill:none;stroke-width:1.2;stroke-linecap:butt;stroke-linejoin:miter;stroke:rgb(0%,0%,0%);stroke-opacity:1;stroke-miterlimit:10;" d="M 59.199219 110.015625 L 41.289062 113.5 "/>
<path style="fill:none;stroke-width:1.2;stroke-linecap:butt;stroke-linejoin:miter;stroke:rgb(0%,0%,0%);stroke-opacity:1;stroke-miterlimit:10;" d="M 38.023438 108.667969 L 35.25 131.308594 "/>
<path style="fill:none;stroke-width:1.2;stroke-linecap:butt;stroke-linejoin:miter;stroke:rgb(0%,0%,0%);stroke-opacity:1;stroke-miterlimit:10;" d="M 35.25 131.308594 L 55.925781 140.941406 "/>
<path style="fill:none;stroke-width:1.2;stroke-linecap:butt;stroke-linejoin:miter;stroke:rgb(0%,0%,0%);stroke-opacity:1;stroke-miterlimit:10;" d="M 39.585938 127.40625 L 56.125 135.113281 "/>
<path style="fill:none;stroke-width:1.2;stroke-linecap:butt;stroke-linejoin:miter;stroke:rgb(0%,0%,0%);stroke-opacity:1;stroke-miterlimit:10;" d="M 55.925781 140.941406 L 60.285156 163.332031 "/>
<path style="fill:none;stroke-width:1.2;stroke-linecap:butt;stroke-linejoin:miter;stroke:rgb(0%,0%,0%);stroke-opacity:1;stroke-miterlimit:10;" d="M 58.523438 161.304688 L 49.917969 168.789062 "/>
<path style="fill:none;stroke-width:1.2;stroke-linecap:butt;stroke-linejoin:miter;stroke:rgb(100%,0%,0%);stroke-opacity:1;stroke-miterlimit:10;" d="M 49.917969 168.789062 L 41.3125 176.273438 "/>
<path style="fill:none;stroke-width:1.2;stroke-linecap:butt;stroke-linejoin:miter;stroke:rgb(0%,0%,0%);stroke-opacity:1;stroke-miterlimit:10;" d="M 62.042969 165.355469 L 53.441406 172.839844 "/>
<path style="fill:none;stroke-width:1.2;stroke-linecap:butt;stroke-linejoin:miter;stroke:rgb(100%,0%,0%);stroke-opacity:1;stroke-miterlimit:10;" d="M 53.441406 172.839844 L 44.835938 180.324219 "/>
<path style="fill:none;stroke-width:1.2;stroke-linecap:butt;stroke-linejoin:miter;stroke:rgb(0%,0%,0%);stroke-opacity:1;stroke-miterlimit:10;" d="M 60.285156 163.332031 L 71.066406 167.039062 "/>
<path style="fill:none;stroke-width:1.2;stroke-linecap:butt;stroke-linejoin:miter;stroke:rgb(0%,0%,100%);stroke-opacity:1;stroke-miterlimit:10;" d="M 71.066406 167.039062 L 81.851562 170.75 "/>
<path style=" stroke:none;fill-rule:nonzero;fill:rgb(100%,100%,100%);fill-opacity:1;" d="M 35.074219 172.800781 L 43.074219 172.800781 L 43.074219 183.800781 L 35.074219 183.800781 Z M 35.074219 172.800781 "/>
<g style="fill:rgb(100%,0%,0%);fill-opacity:1;">
  <use xlink:href="#glyph0-2" x="35.074219" y="181.463867"/>
</g>
<path style="fill:none;stroke-width:1.2;stroke-linecap:butt;stroke-linejoin:miter;stroke:rgb(0%,0%,100%);stroke-opacity:1;stroke-miterlimit:10;" d="M 81.851562 170.75 L 84.03125 181.945312 "/>
<path style="fill:none;stroke-width:1.2;stroke-linecap:butt;stroke-linejoin:miter;stroke:rgb(0%,0%,0%);stroke-opacity:1;stroke-miterlimit:10;" d="M 84.03125 181.945312 L 86.210938 193.136719 "/>
<path style="fill:none;stroke-width:1.2;stroke-linecap:butt;stroke-linejoin:miter;stroke:rgb(0%,0%,0%);stroke-opacity:1;stroke-miterlimit:10;" d="M 99.0625 155.78125 L 90.457031 163.265625 "/>
<path style="fill:none;stroke-width:1.2;stroke-linecap:butt;stroke-linejoin:miter;stroke:rgb(0%,0%,100%);stroke-opacity:1;stroke-miterlimit:10;" d="M 90.457031 163.265625 L 81.851562 170.75 "/>
<path style=" stroke:none;fill-rule:nonzero;fill:rgb(100%,100%,100%);fill-opacity:1;" d="M 78.851562 165.25 L 85.851562 165.25 L 85.851562 176.25 L 78.851562 176.25 Z M 78.851562 165.25 "/>
<g style="fill:rgb(0%,0%,100%);fill-opacity:1;">
  <use xlink:href="#glyph0-1" x="78.851562" y="173.913086"/>
</g>
<path style="fill:none;stroke-width:1.2;stroke-linecap:butt;stroke-linejoin:miter;stroke:rgb(0%,0%,0%);stroke-opacity:1;stroke-miterlimit:10;" d="M 86.210938 193.136719 L 107.777344 200.558594 "/>
<path style="fill:none;stroke-width:1.2;stroke-linecap:butt;stroke-linejoin:miter;stroke:rgb(0%,0%,0%);stroke-opacity:1;stroke-miterlimit:10;" d="M 107.777344 200.558594 L 124.988281 185.589844 "/>
<path style="fill:none;stroke-width:1;stroke-linecap:butt;stroke-linejoin:miter;stroke:rgb(0%,0%,0%);stroke-opacity:1;stroke-miterlimit:10;" d="M 120.628906 163.199219 L 120.628906 163.199219 M 120.683594 166.199219 L 121.707031 166 M 120.734375 169.199219 L 122.78125 168.800781 M 120.789062 172.199219 L 123.859375 171.601562 M 120.839844 175.199219 L 124.933594 174.402344 M 120.894531 178.199219 L 126.011719 177.203125 M 120.945312 181.199219 L 127.089844 180.003906 M 121 184.195312 L 128.164062 182.800781 M 121.039062 186.359375 L 128.941406 184.820312 "/>
<path style="fill:none;stroke-width:1.2;stroke-linecap:butt;stroke-linejoin:miter;stroke:rgb(0%,0%,0%);stroke-opacity:1;stroke-miterlimit:10;" d="M 120.628906 163.199219 L 99.0625 155.78125 "/>
<path style="fill:none;stroke-width:1.2;stroke-linecap:butt;stroke-linejoin:miter;stroke:rgb(0%,0%,0%);stroke-opacity:1;stroke-miterlimit:10;" d="M 120.628906 163.199219 L 118.636719 140.480469 "/>
<path style="fill:none;stroke-width:1.2;stroke-linecap:butt;stroke-linejoin:miter;stroke:rgb(0%,0%,0%);stroke-opacity:1;stroke-miterlimit:10;" d="M 142.855469 168.324219 L 120.628906 163.199219 "/>
<path style="fill:none;stroke-width:1.2;stroke-linecap:butt;stroke-linejoin:miter;stroke:rgb(0%,0%,0%);stroke-opacity:1;stroke-miterlimit:10;" d="M 118.636719 140.480469 L 139.628906 131.558594 "/>
<path style="fill:none;stroke-width:1.2;stroke-linecap:butt;stroke-linejoin:miter;stroke:rgb(0%,0%,0%);stroke-opacity:1;stroke-miterlimit:10;" d="M 139.628906 131.558594 L 147.113281 140.164062 "/>
<path style="fill:none;stroke-width:1.2;stroke-linecap:butt;stroke-linejoin:miter;stroke:rgb(0%,0%,100%);stroke-opacity:1;stroke-miterlimit:10;" d="M 147.113281 140.164062 L 154.597656 148.769531 "/>
<path style="fill:none;stroke-width:1.2;stroke-linecap:butt;stroke-linejoin:miter;stroke:rgb(0%,0%,100%);stroke-opacity:1;stroke-miterlimit:10;" d="M 154.597656 148.769531 L 148.726562 158.546875 "/>
<path style="fill:none;stroke-width:1.2;stroke-linecap:butt;stroke-linejoin:miter;stroke:rgb(0%,0%,0%);stroke-opacity:1;stroke-miterlimit:10;" d="M 148.726562 158.546875 L 142.855469 168.324219 "/>
<path style="fill:none;stroke-width:1.2;stroke-linecap:butt;stroke-linejoin:miter;stroke:rgb(0%,0%,100%);stroke-opacity:1;stroke-miterlimit:10;" d="M 154.597656 148.769531 L 165.957031 147.773438 "/>
<path style="fill:none;stroke-width:1.2;stroke-linecap:butt;stroke-linejoin:miter;stroke:rgb(0%,0%,0%);stroke-opacity:1;stroke-miterlimit:10;" d="M 165.957031 147.773438 L 177.320312 146.777344 "/>
<path style=" stroke:none;fill-rule:nonzero;fill:rgb(100%,100%,100%);fill-opacity:1;" d="M 151.597656 143.269531 L 158.597656 143.269531 L 158.597656 154.269531 L 151.597656 154.269531 Z M 151.597656 143.269531 "/>
<g style="fill:rgb(0%,0%,100%);fill-opacity:1;">
  <use xlink:href="#glyph0-1" x="151.597656" y="151.932617"/>
</g>
<path style="fill:none;stroke-width:1.2;stroke-linecap:butt;stroke-linejoin:miter;stroke:rgb(0%,0%,0%);stroke-opacity:1;stroke-miterlimit:10;" d="M 179.75 147.910156 L 184.566406 137.570312 "/>
<path style="fill:none;stroke-width:1.2;stroke-linecap:butt;stroke-linejoin:miter;stroke:rgb(100%,0%,0%);stroke-opacity:1;stroke-miterlimit:10;" d="M 184.566406 137.570312 L 189.382812 127.234375 "/>
<path style="fill:none;stroke-width:1.2;stroke-linecap:butt;stroke-linejoin:miter;stroke:rgb(0%,0%,0%);stroke-opacity:1;stroke-miterlimit:10;" d="M 174.886719 145.640625 L 179.703125 135.304688 "/>
<path style="fill:none;stroke-width:1.2;stroke-linecap:butt;stroke-linejoin:miter;stroke:rgb(100%,0%,0%);stroke-opacity:1;stroke-miterlimit:10;" d="M 179.703125 135.304688 L 184.519531 124.96875 "/>
<path style="fill:none;stroke-width:1.2;stroke-linecap:butt;stroke-linejoin:miter;stroke:rgb(0%,0%,0%);stroke-opacity:1;stroke-miterlimit:10;" d="M 177.320312 146.777344 L 183.863281 156.117188 "/>
<path style="fill:none;stroke-width:1.2;stroke-linecap:butt;stroke-linejoin:miter;stroke:rgb(0%,0%,100%);stroke-opacity:1;stroke-miterlimit:10;" d="M 183.863281 156.117188 L 190.40625 165.457031 "/>
<path style=" stroke:none;fill-rule:nonzero;fill:rgb(100%,100%,100%);fill-opacity:1;" d="M 182.953125 120.601562 L 190.953125 120.601562 L 190.953125 131.601562 L 182.953125 131.601562 Z M 182.953125 120.601562 "/>
<g style="fill:rgb(100%,0%,0%);fill-opacity:1;">
  <use xlink:href="#glyph0-2" x="182.953125" y="129.264648"/>
</g>
<path style="fill:none;stroke-width:1.2;stroke-linecap:butt;stroke-linejoin:miter;stroke:rgb(0%,0%,100%);stroke-opacity:1;stroke-miterlimit:10;" d="M 190.40625 165.457031 L 201.769531 164.457031 "/>
<path style="fill:none;stroke-width:1.2;stroke-linecap:butt;stroke-linejoin:miter;stroke:rgb(0%,0%,0%);stroke-opacity:1;stroke-miterlimit:10;" d="M 201.769531 164.457031 L 213.128906 163.460938 "/>
<path style=" stroke:none;fill-rule:nonzero;fill:rgb(100%,100%,100%);fill-opacity:1;" d="M 183.40625 159.957031 L 197.40625 159.957031 L 197.40625 170.957031 L 183.40625 170.957031 Z M 183.40625 159.957031 "/>
<g style="fill:rgb(0%,0%,100%);fill-opacity:1;">
  <use xlink:href="#glyph0-1" x="183.40625" y="168.620117"/>
  <use xlink:href="#glyph0-3" x="190.383789" y="168.620117"/>
</g>
<path style="fill:none;stroke-width:1.2;stroke-linecap:butt;stroke-linejoin:miter;stroke:rgb(0%,0%,0%);stroke-opacity:1;stroke-miterlimit:10;" d="M 213.128906 163.460938 L 226.214844 182.140625 "/>
<path style="fill:none;stroke-width:1.2;stroke-linecap:butt;stroke-linejoin:miter;stroke:rgb(0%,0%,0%);stroke-opacity:1;stroke-miterlimit:10;" d="M 218.832031 162.25 L 229.304688 177.191406 "/>
<path style="fill:none;stroke-width:1.2;stroke-linecap:butt;stroke-linejoin:miter;stroke:rgb(0%,0%,0%);stroke-opacity:1;stroke-miterlimit:10;" d="M 222.761719 142.785156 L 213.128906 163.460938 "/>
<path style="fill:none;stroke-width:1.2;stroke-linecap:butt;stroke-linejoin:miter;stroke:rgb(0%,0%,0%);stroke-opacity:1;stroke-miterlimit:10;" d="M 226.214844 182.140625 L 248.9375 180.144531 "/>
<path style="fill:none;stroke-width:1.2;stroke-linecap:butt;stroke-linejoin:miter;stroke:rgb(0%,0%,0%);stroke-opacity:1;stroke-miterlimit:10;" d="M 248.9375 180.144531 L 258.570312 159.472656 "/>
<path style="fill:none;stroke-width:1.2;stroke-linecap:butt;stroke-linejoin:miter;stroke:rgb(0%,0%,0%);stroke-opacity:1;stroke-miterlimit:10;" d="M 245.035156 175.8125 L 252.742188 159.273438 "/>
<path style="fill:none;stroke-width:1.2;stroke-linecap:butt;stroke-linejoin:miter;stroke:rgb(0%,0%,0%);stroke-opacity:1;stroke-miterlimit:10;" d="M 258.570312 159.472656 L 245.484375 140.792969 "/>
<path style="fill:none;stroke-width:1.2;stroke-linecap:butt;stroke-linejoin:miter;stroke:rgb(0%,0%,0%);stroke-opacity:1;stroke-miterlimit:10;" d="M 245.484375 140.792969 L 222.761719 142.785156 "/>
<path style="fill:none;stroke-width:1.2;stroke-linecap:butt;stroke-linejoin:miter;stroke:rgb(0%,0%,0%);stroke-opacity:1;stroke-miterlimit:10;" d="M 243.679688 146.335938 L 225.503906 147.933594 "/>
<path style="fill:none;stroke-width:1.2;stroke-linecap:butt;stroke-linejoin:miter;stroke:rgb(0%,0%,0%);stroke-opacity:1;stroke-miterlimit:10;" d="M 245.484375 140.792969 L 255.117188 120.117188 "/>
<path style="fill:none;stroke-width:1.2;stroke-linecap:butt;stroke-linejoin:miter;stroke:rgb(0%,0%,0%);stroke-opacity:1;stroke-miterlimit:10;" d="M 255.117188 120.117188 L 259.933594 109.78125 "/>
<path style="fill:none;stroke-width:1.2;stroke-linecap:butt;stroke-linejoin:miter;stroke:rgb(0%,0%,100%);stroke-opacity:1;stroke-miterlimit:10;" d="M 259.933594 109.78125 L 264.75 99.441406 "/>
<path style="fill:none;stroke-width:1.2;stroke-linecap:butt;stroke-linejoin:miter;stroke:rgb(0%,0%,0%);stroke-opacity:1;stroke-miterlimit:10;" d="M 260.945312 120.316406 L 264.796875 112.046875 "/>
<path style="fill:none;stroke-width:1.2;stroke-linecap:butt;stroke-linejoin:miter;stroke:rgb(0%,0%,100%);stroke-opacity:1;stroke-miterlimit:10;" d="M 264.796875 112.046875 L 268.652344 103.777344 "/>
<path style="fill:none;stroke-width:1.2;stroke-linecap:butt;stroke-linejoin:miter;stroke:rgb(0%,0%,0%);stroke-opacity:1;stroke-miterlimit:10;" d="M 251.214844 115.78125 L 255.070312 107.511719 "/>
<path style="fill:none;stroke-width:1.2;stroke-linecap:butt;stroke-linejoin:miter;stroke:rgb(0%,0%,100%);stroke-opacity:1;stroke-miterlimit:10;" d="M 255.070312 107.511719 L 258.921875 99.242188 "/>
<path style=" stroke:none;fill-rule:nonzero;fill:rgb(100%,100%,100%);fill-opacity:1;" d="M 261.75 93.941406 L 268.75 93.941406 L 268.75 104.941406 L 261.75 104.941406 Z M 261.75 93.941406 "/>
<g style="fill:rgb(0%,0%,100%);fill-opacity:1;">
  <use xlink:href="#glyph0-1" x="261.75" y="102.604492"/>
</g>
</g>
</svg>

<svg xmlns="http://www.w3.org/2000/svg" xmlns:xlink="http://www.w3.org/1999/xlink" width="300pt" height="300pt" viewBox="0 0 300 300"><defs><symbol overflow="visible"><path d="M.453 1.594v-7.938h4.5v7.938zm.5-.5h3.5v-6.938h-3.5zm0 0"/></symbol><symbol overflow="visible" id="a"><path d="M.89-6.563H2.08l2.906 5.485v-5.484h.86V0H4.656L1.75-5.484V0H.89zm0 0"/></symbol><symbol overflow="visible" id="b"><path d="M3.547-5.953c-.65 0-1.164.242-1.547.72-.375.48-.563 1.13-.563 1.952 0 .835.188 1.49.563 1.967.383.48.898.72 1.547.72.644 0 1.156-.24 1.53-.72.376-.476.564-1.132.564-1.968 0-.822-.187-1.474-.562-1.954-.375-.477-.887-.72-1.53-.72zm0-.734c.914 0 1.648.312 2.203.937.55.617.828 1.438.828 2.47 0 1.042-.277 1.87-.828 2.483-.555.617-1.29.922-2.203.922-.93 0-1.668-.305-2.22-.922C.774-1.41.5-2.237.5-3.28c0-1.033.273-1.853.828-2.47.55-.625 1.29-.938 2.22-.938zm0 0"/></symbol><symbol overflow="visible" id="c"><path d="M.89-6.563h.876v2.688H5v-2.688h.89V0H5v-3.125H1.766V0H.89zm0 0"/></symbol></defs><g><path fill="#fff" d="M0 0h300v300H0z"/><path d="M94.113 127.027l-11.316-1.386" stroke-width="1.2" stroke="#000" stroke-miterlimit="10" fill="none"/><path d="M82.797 125.64l-11.32-1.382M71.477 124.258l-5.532-9.977" stroke-width="1.2" stroke="#00f" stroke-miterlimit="10" fill="none"/><path d="M65.945 114.28l-5.535-9.97M55.926 140.94L63.7 132.6" stroke-width="1.2" stroke="#000" stroke-miterlimit="10" fill="none"/><path d="M63.7 132.598l7.777-8.34" stroke-width="1.2" stroke="#00f" stroke-miterlimit="10" fill="none"/><path d="M68.477 118.758h7v11h-7zm0 0" fill="#fff"/><use xlink:href="#a" x="68.477" y="127.421" fill="#00f"/><path d="M60.41 104.31l-22.387 4.358M59.2 110.016L41.29 113.5M38.023 108.668l-2.773 22.64M35.25 131.31l20.676 9.63M39.586 127.406l16.54 7.707M55.926 140.94l4.36 22.392M58.523 161.305l-8.605 7.484" stroke-width="1.2" stroke="#000" stroke-miterlimit="10" fill="none"/><path d="M49.918 168.79l-8.605 7.483" stroke-width="1.2" stroke="#f00" stroke-miterlimit="10" fill="none"/><path d="M62.043 165.355l-8.602 7.485" stroke-width="1.2" stroke="#000" stroke-miterlimit="10" fill="none"/><path d="M53.44 172.84l-8.604 7.484" stroke-width="1.2" stroke="#f00" stroke-miterlimit="10" fill="none"/><path d="M60.285 163.332l10.78 3.707" stroke-width="1.2" stroke="#000" stroke-miterlimit="10" fill="none"/><path d="M71.066 167.04l10.786 3.71" stroke-width="1.2" stroke="#00f" stroke-miterlimit="10" fill="none"/><path d="M35.074 172.8h8v11h-8zm0 0" fill="#fff"/><use xlink:href="#b" x="35.074" y="181.464" fill="#f00"/><path d="M81.852 170.75l2.18 11.195" stroke-width="1.2" stroke="#00f" stroke-miterlimit="10" fill="none"/><path d="M84.03 181.945l2.18 11.192M99.063 155.78l-8.606 7.486" stroke-width="1.2" stroke="#000" stroke-miterlimit="10" fill="none"/><path d="M90.457 163.266l-8.605 7.484" stroke-width="1.2" stroke="#00f" stroke-miterlimit="10" fill="none"/><path d="M78.852 165.25h7v11h-7zm0 0" fill="#fff"/><use xlink:href="#a" x="78.852" y="173.913" fill="#00f"/><path d="M86.21 193.137l21.567 7.422M107.777 200.56l17.21-14.97" stroke-width="1.2" stroke="#000" stroke-miterlimit="10" fill="none"/><path d="M120.63 163.2m.054 3l1.023-.2m-.973 3.2l2.047-.4m-1.99 3.4l3.07-.598m-3.02 3.597l4.094-.798m-4.04 3.797l5.118-.997m-5.067 3.996l6.145-1.196m-6.09 4.19l7.164-1.393m-7.125 3.56l7.9-1.54" stroke="#000" stroke-miterlimit="10" fill="none"/><path d="M120.63 163.2l-21.567-7.42M120.63 163.2l-1.993-22.72M142.855 168.324L120.63 163.2M118.637 140.48l20.992-8.92M139.63 131.56l7.483 8.604" stroke-width="1.2" stroke="#000" stroke-miterlimit="10" fill="none"/><path d="M147.113 140.164l7.485 8.606M154.598 148.77l-5.87 9.777" stroke-width="1.2" stroke="#00f" stroke-miterlimit="10" fill="none"/><path d="M148.727 158.547l-5.872 9.777" stroke-width="1.2" stroke="#000" stroke-miterlimit="10" fill="none"/><path d="M154.598 148.77l11.36-.997" stroke-width="1.2" stroke="#00f" stroke-miterlimit="10" fill="none"/><path d="M165.957 147.773l11.363-.996" stroke-width="1.2" stroke="#000" stroke-miterlimit="10" fill="none"/><path d="M151.598 143.27h7v11h-7zm0 0" fill="#fff"/><use xlink:href="#a" x="151.598" y="151.933" fill="#00f"/><path d="M179.75 147.91l4.816-10.34" stroke-width="1.2" stroke="#000" stroke-miterlimit="10" fill="none"/><path d="M184.566 137.57l4.817-10.336" stroke-width="1.2" stroke="#f00" stroke-miterlimit="10" fill="none"/><path d="M174.887 145.64l4.816-10.335" stroke-width="1.2" stroke="#000" stroke-miterlimit="10" fill="none"/><path d="M179.703 135.305l4.817-10.336" stroke-width="1.2" stroke="#f00" stroke-miterlimit="10" fill="none"/><path d="M177.32 146.777l6.543 9.34" stroke-width="1.2" stroke="#000" stroke-miterlimit="10" fill="none"/><path d="M183.863 156.117l6.543 9.34" stroke-width="1.2" stroke="#00f" stroke-miterlimit="10" fill="none"/><path d="M182.953 120.602h8v11h-8zm0 0" fill="#fff"/><use xlink:href="#b" x="182.953" y="129.265" fill="#f00"/><path d="M190.406 165.457l11.364-1" stroke-width="1.2" stroke="#00f" stroke-miterlimit="10" fill="none"/><path d="M201.77 164.457l11.36-.996" stroke-width="1.2" stroke="#000" stroke-miterlimit="10" fill="none"/><path d="M183.406 159.957h14v11h-14zm0 0" fill="#fff"/><g fill="#00f"><use xlink:href="#a" x="183.406" y="168.62"/><use xlink:href="#c" x="190.384" y="168.62"/></g><path d="M213.13 163.46l13.085 18.68M218.832 162.25l10.473 14.94M222.762 142.785l-9.633 20.676M226.215 182.14l22.722-1.995M248.938 180.145l9.632-20.672M245.035 175.813l7.707-16.54M258.57 159.473l-13.086-18.68M245.484 140.793l-22.722 1.992M243.68 146.336l-18.176 1.598M245.484 140.793l9.633-20.676M255.117 120.117l4.817-10.336" stroke-width="1.2" stroke="#000" stroke-miterlimit="10" fill="none"/><path d="M259.934 109.78l4.816-10.34" stroke-width="1.2" stroke="#00f" stroke-miterlimit="10" fill="none"/><path d="M260.945 120.316l3.852-8.27" stroke-width="1.2" stroke="#000" stroke-miterlimit="10" fill="none"/><path d="M264.797 112.047l3.855-8.27" stroke-width="1.2" stroke="#00f" stroke-miterlimit="10" fill="none"/><path d="M251.215 115.78l3.855-8.268" stroke-width="1.2" stroke="#000" stroke-miterlimit="10" fill="none"/><path d="M255.07 107.512l3.852-8.27" stroke-width="1.2" stroke="#00f" stroke-miterlimit="10" fill="none"/><path d="M261.75 93.94h7v11h-7zm0 0" fill="#fff"/><use xlink:href="#a" x="261.75" y="102.604" fill="#00f"/></g></svg>
